X: 1
T: James'
M: 6/8
L: 1/8
R: jig
K: Emin
|: BGE E^DE | BGB AFA | BGE EDE |  FGA ABc |
~B3 cBA |BGE FDB, | CDE EFG | AFD E3 :|
|: ~G3 Bcd | ege dBG | c3 BAG | FAG FED |
~E3 EDB, | CEG DFA | GBG AGF | GEE E3 :|
